wilib/img/svg/torneira.svg

<svg xmlns="http://www.w3.org/2000/svg" xmlns:xlink="http://www.w3.org/1999/xlink" preserveAspectRatio="none" width="226" height="291" viewBox="0 0 226 291"><defs><g id="a"><path fill="#AAA" d="M54.4 164.25q-5.55-.95-10.7-1.45 5.25 80.8-9 125.55h19.7v-124.1z"/><path fill="#B7B7B7" d="M11.4 164.25V288.35h23.3q14.25-44.75 9-125.55-18.5-1.95-32.3 1.45m169.05-46.5q-3.2-10.15-5.05-15.55-7.3-20.95-12.95-14.95-5.65 6-26.55 10-20.95 4-32.85 4.9-11.95.85-32.15-5.9-11.45-7-11.65-7-7.95 0-11.35 24.3-1.7 12.35-2.15 26.6v.1h-.85l.05.45h.3q7.15.4 12.95 1.4l.65.05q0-15.5 6.35-22.8 6.1-7.05 18.2-6.5 31.1 6.8 64.45 0 21.2-.3 23 15.8 0-1.05 7.65-1.8 2.6-.25 5.6-.4-1.5-2.3-3.65-8.7m-7.05-104.4q-1.3 4.75-6.15 8.4-6.6 4.95-16 4.95-1.15 0-2.3-.05-2.8-.5-5.55-1-10.6-1.55-21.15-2.1-31.2.7-41.5 2.3-2.05.5-4.35.7-1.45.15-3 .15-9.35 0-15.95-4.95-4.9-3.65-6.2-8.4-.45 1.7-.45 3.5 0 6.95 6.65 11.9 6.6 4.95 15.95 4.95 1.55 0 3-.15 2.3-.2 4.35-.7 10.3-1.6 20.6-2.2 8.35-6.1 20.9-.1 10.55.55 21.15 2.1 2.75.5 5.55 1 1.15.05 2.3.05 9.4 0 16-4.95t6.6-11.9q0-1.8-.45-3.5z"/><path fill="#666" d="M9.95 159.8Q.5 161.45 0 163.7v.35q.15 2.35 9.95 4.1.7.1 1.45.25v-4.15q13.8-3.4 32.3-1.45 5.15.5 10.7 1.45v4.5q1.95-.3 3.8-.6 10-1.75 10-4.2v-.05q-.1-2.4-10-4.1-10-1.75-24.1-1.75-14.15 0-24.15 1.75M120.8 55.4q-3.7-.25-7.8-.25-5.3 0-10.05.4-7.7.75-13.8 2.55-1.95.6-3.5 1.25-5.3 2.15-6.2 4.85 12.3-.65 24.15-1.15 12.45-.55 29.7.35 6.8.35 13.35.9-.85-2.8-6.25-4.95-1.55-.65-3.5-1.25-7-2.1-16.1-2.7z"/><path fill="#CCC" d="M58.85 142.25v-.1l-.65-.05q.3.05.65.15m131.85-69.7q-9.75-3.6-24.95-5.95-9.2-1.45-19.1-2.3-6.55-.55-13.35-.9-17.25-.9-29.7-.35-11.85.5-24.15 1.15l-1.3.1q-13 .75-26.1 3.85-35.8 8.4-40.65 37.9v35.85q1.8-.3 3.7-.5 5.65-.65 12.3-.9 3.25-.1 6.7-.1 5.7 0 10.85.3l-.05-.45h.85v-.1q.45-14.25 2.15-26.6 3.4-24.3 11.35-24.3.2 0 11.65 7 20.2 6.75 32.15 5.9 11.9-.9 32.85-4.9 20.9-4 26.55-10 5.65-6 12.95 14.95 1.85 5.4 5.05 15.55 2.15 6.4 3.65 8.7.35-.05.65-.05 5.5-.3 12.25-.3 10.85 0 18.5.75 5.75.55 7.2 1.3-1.45-44.2-32-55.6m-17.3-59.2q-1.3-4.75-6.15-8.45-6.6-4.9-16-4.9-1.15 0-2.3.1-2.85.2-5.5.9Q112 5.65 80.6.85q-1.95-.5-4.15-.7Q74.95 0 73.4 0q-9.35 0-15.95 4.9-4.9 3.7-6.2 8.45 1.3 4.75 6.2 8.4 6.6 4.95 15.95 4.95 1.55 0 3-.15 2.3-.2 4.35-.7 10.3-1.6 41.5-2.3 10.55.55 21.15 2.1 2.75.5 5.55 1 1.15.05 2.3.05 9.4 0 16-4.95 4.85-3.65 6.15-8.4z"/><path fill="#999" d="M58.2 142.1q-5.8-1-12.95-1.4h-.3q-5.15-.3-10.85-.3-3.45 0-6.7.1-6.65.25-12.3.9-1.9.2-3.7.5-.75.1-1.45.2-9.2 1.6-9.9 3.85L0 163.7q.5-2.25 9.95-3.9 10-1.75 24.15-1.75 14.1 0 24.1 1.75 9.9 1.7 10 4.1l-.05-17.85q-.5-2.2-9.3-3.8-.35-.1-.65-.15z"/><path fill="#333" d="M223.2 128.65q0-.25-.5-.5-1.45-.75-7.2-1.3-7.65-.75-18.5-.75-6.75 0-12.25.3-.3 0-.65.05-3 .15-5.6.4-7.65.75-7.65 1.8 0 1.1 7.65 1.85t18.5.75q10.85 0 18.5-.75 7.7-.75 7.7-1.85m-121.85-73.1q5.55-.45 11.8-.45 4.8 0 9.1.3V30.55q-12.55-6-20.9.1v24.9z"/></g></defs><use xlink:href="#a" transform="translate(1.4 1.35)"/></svg>

<svg xmlns="http://www.w3.org/2000/svg" version="1.1" xmlns:xlink="http://www.w3.org/1999/xlink" preserveAspectRatio="none" x="0px" y="0px" width="226px" height="291px" viewBox="0 0 226 291">
<defs>
<g id="S_mbolo_1_0_Layer0_0_FILL">
<path fill="#AAAAAA" stroke="none" d="
M 54.4 164.25
Q 48.85 163.3 43.7 162.8 48.95 243.6 34.7 288.35
L 54.4 288.35 54.4 168.75 54.4 164.25 Z"/>

<path fill="#B7B7B7" stroke="none" d="
M 11.4 164.25
L 11.4 168.4 11.4 288.35 34.7 288.35
Q 48.95 243.6 43.7 162.8 25.2 160.85 11.4 164.25
M 180.45 117.75
Q 177.25 107.6 175.4 102.2 168.1 81.25 162.45 87.25 156.8 93.25 135.9 97.25 114.95 101.25 103.05 102.15 91.1 103 70.9 96.25 59.45 89.25 59.25 89.25 51.3 89.25 47.9 113.55 46.2 125.9 45.75 140.15 45.75 140.2 45.75 140.25
L 44.9 140.25 44.95 140.7
Q 45.1 140.7 45.25 140.7 52.4 141.1 58.2 142.1
L 58.85 142.15
Q 58.85 126.65 65.2 119.35 71.3 112.3 83.4 112.85 114.5 119.65 147.85 112.85 169.05 112.55 170.85 128.65 170.85 127.6 178.5 126.85 181.1 126.6 184.1 126.45 182.6 124.15 180.45 117.75
M 173.4 13.35
Q 172.1 18.1 167.25 21.75 160.65 26.7 151.25 26.7 150.1 26.7 148.95 26.65 146.15 26.15 143.4 25.65 132.8 24.1 122.25 23.55 91.05 24.25 80.75 25.85 78.7 26.35 76.4 26.55 74.95 26.7 73.4 26.7 64.05 26.7 57.45 21.75 52.55 18.1 51.25 13.35 50.8 15.05 50.8 16.85 50.8 23.8 57.45 28.75 64.05 33.7 73.4 33.7 74.95 33.7 76.4 33.55 78.7 33.35 80.75 32.85 91.05 31.25 101.35 30.65 109.7 24.55 122.25 30.55 132.8 31.1 143.4 32.65 146.15 33.15 148.95 33.65 150.1 33.7 151.25 33.7 160.65 33.7 167.25 28.75 173.85 23.8 173.85 16.85 173.85 15.05 173.4 13.35 Z"/>

<path fill="#666666" stroke="none" d="
M 9.95 159.8
Q 0.5 161.45 0 163.7
L 0 163.95
Q 0 164 0 164.05 0.15 166.4 9.95 168.15 10.65 168.25 11.4 168.4
L 11.4 164.25
Q 25.2 160.85 43.7 162.8 48.85 163.3 54.4 164.25
L 54.4 168.75
Q 56.35 168.45 58.2 168.15 68.2 166.4 68.2 163.95
L 68.2 163.9
Q 68.1 161.5 58.2 159.8 48.2 158.05 34.1 158.05 19.95 158.05 9.95 159.8
M 120.8 55.4
Q 117.1 55.15 113 55.15 107.7 55.15 102.95 55.55 95.25 56.3 89.15 58.1 87.2 58.7 85.65 59.35 80.35 61.5 79.45 64.2 91.75 63.55 103.6 63.05 116.05 62.5 133.3 63.4 140.1 63.75 146.65 64.3 145.8 61.5 140.4 59.35 138.85 58.7 136.9 58.1 129.9 56 120.8 55.4 Z"/>

<path fill="#CCCCCC" stroke="none" d="
M 58.85 142.25
Q 58.85 142.2 58.85 142.15
L 58.2 142.1
Q 58.5 142.15 58.85 142.25
M 190.7 72.55
Q 180.95 68.95 165.75 66.6 156.55 65.15 146.65 64.3 140.1 63.75 133.3 63.4 116.05 62.5 103.6 63.05 91.75 63.55 79.45 64.2 78.8 64.25 78.15 64.3 65.15 65.05 52.05 68.15 16.25 76.55 11.4 106.05
L 11.4 141.9
Q 13.2 141.6 15.1 141.4 20.75 140.75 27.4 140.5 30.65 140.4 34.1 140.4 39.8 140.4 44.95 140.7
L 44.9 140.25 45.75 140.25
Q 45.75 140.2 45.75 140.15 46.2 125.9 47.9 113.55 51.3 89.25 59.25 89.25 59.45 89.25 70.9 96.25 91.1 103 103.05 102.15 114.95 101.25 135.9 97.25 156.8 93.25 162.45 87.25 168.1 81.25 175.4 102.2 177.25 107.6 180.45 117.75 182.6 124.15 184.1 126.45 184.45 126.4 184.75 126.4 190.25 126.1 197 126.1 207.85 126.1 215.5 126.85 221.25 127.4 222.7 128.15 221.25 83.95 190.7 72.55
M 173.4 13.35
Q 172.1 8.6 167.25 4.9 160.65 0 151.25 0 150.1 0 148.95 0.1 146.1 0.3 143.45 1 112 5.65 80.6 0.85 78.65 0.35 76.45 0.15 74.95 0 73.4 0 64.05 0 57.45 4.9 52.55 8.6 51.25 13.35 52.55 18.1 57.45 21.75 64.05 26.7 73.4 26.7 74.95 26.7 76.4 26.55 78.7 26.35 80.75 25.85 91.05 24.25 122.25 23.55 132.8 24.1 143.4 25.65 146.15 26.15 148.95 26.65 150.1 26.7 151.25 26.7 160.65 26.7 167.25 21.75 172.1 18.1 173.4 13.35 Z"/>

<path fill="#999999" stroke="none" d="
M 58.2 142.1
Q 52.4 141.1 45.25 140.7 45.1 140.7 44.95 140.7 39.8 140.4 34.1 140.4 30.65 140.4 27.4 140.5 20.75 140.75 15.1 141.4 13.2 141.6 11.4 141.9 10.65 142 9.95 142.1 0.75 143.7 0.05 145.95
L 0 163.7
Q 0.5 161.45 9.95 159.8 19.95 158.05 34.1 158.05 48.2 158.05 58.2 159.8 68.1 161.5 68.2 163.9
L 68.15 146.05
Q 67.65 143.85 58.85 142.25 58.5 142.15 58.2 142.1 Z"/>

<path fill="#333333" stroke="none" d="
M 223.2 128.65
Q 223.2 128.4 222.7 128.15 221.25 127.4 215.5 126.85 207.85 126.1 197 126.1 190.25 126.1 184.75 126.4 184.45 126.4 184.1 126.45 181.1 126.6 178.5 126.85 170.85 127.6 170.85 128.65 170.85 129.75 178.5 130.5 186.15 131.25 197 131.25 207.85 131.25 215.5 130.5 223.2 129.75 223.2 128.65
M 101.35 55.55
Q 106.9 55.1 113.15 55.1 117.95 55.1 122.25 55.4
L 122.25 30.55
Q 109.7 24.55 101.35 30.65
L 101.35 55.55 Z"/>
</g>
</defs>

<g transform="matrix( 1, 0, 0, 1, 1.4,1.35) ">
<g transform="matrix( 1, 0, 0, 1, 0,0) ">
<use xlink:href="#S_mbolo_1_0_Layer0_0_FILL"/>
</g>
</g>
</svg>
